dist/img/telegram.svg

<svg width="24px" height="24px" viewBox="0 0 24 24" fill="none" xmlns="http://www.w3.org/2000/svg">
<path fill-rule="evenodd" clip-rule="evenodd" d="M5.78754 14.0196C5.83131 14.0344 5.87549 14.0448 5.91963 14.0512C5.96777 14.1644 6.02996 14.3107 6.10252 14.4818C6.27959 14.8994 6.51818 15.4643 6.76446 16.0535C7.2667 17.2552 7.77332 18.4939 7.88521 18.8485C8.02372 19.2868 8.17013 19.5848 8.32996 19.7883C8.4126 19.8935 8.50819 19.9853 8.62003 20.0549C8.67633 20.0899 8.7358 20.1186 8.79788 20.14C8.80062 20.141 8.80335 20.1419 8.80608 20.1428C9.1261 20.2636 9.41786 20.2133 9.60053 20.1518C9.69827 20.1188 9.77735 20.0791 9.8334 20.0469C9.86198 20.0304 9.88612 20.0151 9.90538 20.0021L9.90992 19.9991L12.7361 18.2366L16.0007 20.7394C16.0488 20.7763 16.1014 20.8073 16.157 20.8316C16.5492 21.0027 16.929 21.0624 17.2862 21.0136C17.6429 20.9649 17.926 20.8151 18.1368 20.6464C18.3432 20.4813 18.4832 20.2963 18.5703 20.1589C18.6148 20.0887 18.6482 20.0266 18.6718 19.9791C18.6836 19.9552 18.6931 19.9346 18.7005 19.9181L18.7099 19.8963L18.7135 19.8877L18.715 19.8841L18.7156 19.8824L18.7163 19.8808C18.7334 19.8379 18.7466 19.7935 18.7556 19.7482L21.7358 4.72274C21.7453 4.67469 21.7501 4.62581 21.7501 4.57682C21.7501 4.13681 21.5843 3.71841 21.1945 3.46452C20.8613 3.24752 20.4901 3.23818 20.2556 3.25598C20.0025 3.27519 19.7688 3.33766 19.612 3.38757C19.5304 3.41355 19.4619 3.43861 19.4126 3.45773C19.3878 3.46734 19.3675 3.47559 19.3523 3.48188L19.341 3.48666L2.62725 10.0432L2.62509 10.044C2.61444 10.0479 2.60076 10.053 2.58451 10.0593C2.55215 10.0719 2.50878 10.0896 2.45813 10.1126C2.35935 10.1574 2.22077 10.2273 2.07856 10.3247C1.85137 10.4803 1.32888 10.9064 1.41686 11.6097C1.48705 12.1708 1.87143 12.5154 2.10562 12.6811C2.23421 12.7721 2.35638 12.8371 2.44535 12.8795C2.48662 12.8991 2.57232 12.9339 2.6095 12.9491L2.61889 12.9529L5.78754 14.0196ZM19.9259 4.86786L19.9236 4.86888C19.9152 4.8725 19.9069 4.87596 19.8984 4.87928L3.1644 11.4438C3.15566 11.4472 3.14686 11.4505 3.138 11.4536L3.12869 11.4571C3.11798 11.4613 3.09996 11.4686 3.07734 11.4788C3.06451 11.4846 3.05112 11.491 3.03747 11.4978C3.05622 11.5084 3.07417 11.5175 3.09012 11.5251C3.10543 11.5324 3.11711 11.5374 3.1235 11.54L6.26613 12.598C6.32365 12.6174 6.37727 12.643 6.42649 12.674L16.8033 6.59948L16.813 6.59374C16.8205 6.58927 16.8305 6.58353 16.8424 6.5768C16.866 6.56345 16.8984 6.54568 16.937 6.52603C17.009 6.48938 17.1243 6.43497 17.2541 6.39485C17.3444 6.36692 17.6109 6.28823 17.899 6.38064C18.0768 6.43767 18.2609 6.56028 18.3807 6.76798C18.4401 6.87117 18.4718 6.97483 18.4872 7.06972C18.528 7.2192 18.5215 7.36681 18.4896 7.49424C18.4208 7.76875 18.228 7.98287 18.0525 8.14665C17.9021 8.28706 15.9567 10.1629 14.0376 12.0147C13.0805 12.9381 12.1333 13.8525 11.4252 14.5359L10.9602 14.9849L16.8321 19.4867C16.9668 19.5349 17.0464 19.5325 17.0832 19.5274C17.1271 19.5214 17.163 19.5045 17.1997 19.4752C17.2407 19.4424 17.2766 19.398 17.3034 19.3557L17.3045 19.354L20.195 4.78102C20.1521 4.79133 20.1087 4.80361 20.0669 4.81691C20.0196 4.83198 19.9805 4.84634 19.9547 4.85637C19.9418 4.86134 19.9326 4.86511 19.9276 4.86719L19.9259 4.86786ZM11.4646 17.2618L10.2931 16.3636L10.0093 18.1693L11.4646 17.2618ZM9.21846 14.5814L10.3834 13.4567C11.0915 12.7732 12.0389 11.8588 12.9961 10.9352L13.9686 9.997L7.44853 13.8138L7.48351 13.8963C7.66121 14.3154 7.90087 14.8827 8.14845 15.4751C8.33358 15.918 8.52717 16.3844 8.70349 16.8162L8.98653 15.0158C9.01381 14.8422 9.09861 14.692 9.21846 14.5814Z" fill="#fff"/>
</svg>

<svg width="24" height="24" fill="none" xmlns="http://www.w3.org/2000/svg"><path fill-rule="evenodd" clip-rule="evenodd" d="M5.788 14.02a.746.746 0 00.132.031 456.056 456.056 0 01.844 2.002c.503 1.202 1.01 2.44 1.121 2.796.139.438.285.736.445.94.083.104.178.196.29.266a.88.88 0 00.186.088c.32.12.612.07.795.009a1.313 1.313 0 00.304-.15L9.91 20l2.826-1.762 3.265 2.502c.048.037.1.068.156.093.392.17.772.23 1.13.182.356-.05.639-.199.85-.368a1.992 1.992 0 00.564-.728l.009-.022.003-.008.002-.004v-.002l.001-.001a.756.756 0 00.04-.133l2.98-15.025a.752.752 0 00.014-.146c0-.44-.166-.859-.555-1.112-.334-.217-.705-.227-.94-.209-.252.02-.486.082-.643.132a3.458 3.458 0 00-.26.094l-.011.005-16.714 6.556-.002.001a2.296 2.296 0 00-.167.069 2.522 2.522 0 00-.38.212c-.227.155-.75.581-.661 1.285.07.56.454.905.689 1.071.128.091.25.156.34.199.04.02.126.054.163.07l.01.003 3.169 1.067zm14.138-9.152h-.002a.785.785 0 01-.026.011L3.164 11.444a.818.818 0 01-.026.01l-.01.003a1.126 1.126 0 00-.09.04.851.851 0 00.086.043l3.142 1.058a.75.75 0 01.16.076l10.377-6.075.01-.005a1.59 1.59 0 01.124-.068c.072-.037.187-.091.317-.131.09-.028.357-.107.645-.014a.854.854 0 01.588.689.84.84 0 01.003.424c-.07.275-.262.489-.438.653-.15.14-2.095 2.016-4.014 3.868l-2.613 2.52-.465.45 5.872 4.502a.536.536 0 00.251.04.229.229 0 00.117-.052.495.495 0 00.103-.12l.002-.001 2.89-14.573a1.858 1.858 0 00-.267.086h-.002zm-8.461 12.394l-1.172-.898-.284 1.805 1.456-.907zm-2.247-2.68l1.165-1.125 2.613-2.522.973-.938-6.52 3.817.035.082a339.2 339.2 0 011.22 2.92l.283-1.8a.747.747 0 01.231-.435z" fill="#fff"/></svg>
